src/apps/symbolic/budgie-countdown-symbolic.svg

<svg width="16" height="16" version="1.1" viewBox="0 0 16 16" xmlns="http://www.w3.org/2000/svg">
 <path d="m3 1v1h2v3c0 1.0464 0.53024 1.9635 1.3379 2.5-0.80765 0.53647-1.3379 1.4536-1.3379 2.5v4h-2v1h10v-1h-2v-4c0-1.0464-0.53024-1.9635-1.3379-2.5 0.80765-0.53647 1.3379-1.4536 1.3379-2.5v-3h2v-1h-10zm3 1h4v3c0 1.108-0.892 2-2 2s-2-0.892-2-2v-3zm2 6c1.108 0 2 0.892 2 2v4h-4v-4c0-1.108 0.892-2 2-2z" fill="#363636" stop-color="#000000" stroke-width="0"/>
 <rect x="6" y="11" width="4" height="3" fill="#363636" opacity=".35" stop-color="#000000" stroke-width="0"/>
</svg>

<svg xmlns="http://www.w3.org/2000/svg" width="16" height="16">
    <path fill="#050505" fill-opacity=".7" d="M3 1v1h2v3a2.99 2.99 0 0 0 1.338 2.5A2.99 2.99 0 0 0 5 10v4H3v1h10v-1h-2v-4a2.99 2.99 0 0 0-1.338-2.5A2.99 2.99 0 0 0 11 5V2h2V1H3zm3 1h4v3c0 1.108-.892 2-2 2s-2-.892-2-2V2zm2 6c1.108 0 2 .892 2 2v4H6v-4c0-1.108.892-2 2-2z"/>
    <path fill="#050505" d="M6 11h4v3H6z" opacity=".35"/>
</svg>
